packages/dnb-eufemia/assets/icons/cloud_download.svg

<svg width="16" height="16" viewBox="0 0 16 16" fill="none" xmlns="http://www.w3.org/2000/svg">
<path d="M4.14607 11.8174C4.56028 11.8174 4.89607 11.4816 4.89607 11.0674C4.89607 10.6532 4.56028 10.3174 4.14607 10.3174V11.8174ZM3.55864 4.83003L3.69783 5.567L3.55864 4.83003ZM12.2866 6.04127L11.5447 5.93182C11.5114 6.1575 11.5826 6.38607 11.7382 6.55288C11.8939 6.71969 12.1169 6.8066 12.3444 6.78904L12.2866 6.04127ZM5.34541 5.8472C5.70455 6.05359 6.16299 5.92975 6.36938 5.57062C6.57576 5.21148 6.45193 4.75304 6.09279 4.54666L5.34541 5.8472ZM8.67135 9.49438C8.67135 9.08017 8.33556 8.74438 7.92135 8.74438C7.50713 8.74438 7.17135 9.08017 7.17135 9.49438H8.67135ZM6.56404 12.4247C6.27114 12.1318 5.79627 12.1318 5.50338 12.4247C5.21048 12.7176 5.21048 13.1925 5.50338 13.4854L6.56404 12.4247ZM7.92135 14.8427L7.39102 15.373C7.53167 15.5137 7.72244 15.5927 7.92135 15.5927C8.12026 15.5927 8.31103 15.5137 8.45168 15.373L7.92135 14.8427ZM10.3393 13.4854C10.6322 13.1925 10.6322 12.7176 10.3393 12.4247C10.0464 12.1318 9.57155 12.1318 9.27866 12.4247L10.3393 13.4854ZM11.7124 10.3174C11.2981 10.3174 10.9624 10.6532 10.9624 11.0674C10.9624 11.4816 11.2981 11.8174 11.7124 11.8174V10.3174ZM4.14607 10.3174C2.82276 10.3174 1.75 9.24466 1.75 7.92135H0.25C0.25 10.0731 1.99433 11.8174 4.14607 11.8174V10.3174ZM14.25 8.55056C14.25 9.52637 13.459 10.3174 12.4831 10.3174V11.8174C14.2874 11.8174 15.75 10.3548 15.75 8.55056H14.25ZM1.75 7.92135C1.75 6.75176 2.58876 5.77646 3.69783 5.567L3.41946 4.09305C1.61496 4.43386 0.25 6.0174 0.25 7.92135H1.75ZM4.30378 4.91534C4.52656 2.96949 6.26769 1.75 7.92135 1.75V0.25C5.62861 0.25 3.13636 1.92489 2.81351 4.74471L4.30378 4.91534ZM7.92135 1.75C10.3377 1.75 11.84 3.92951 11.5447 5.93182L13.0286 6.15071C13.4409 3.35588 11.3642 0.25 7.92135 0.25V1.75ZM12.3444 6.78904C13.3501 6.71137 14.25 7.54102 14.25 8.55056H15.75C15.75 6.66312 14.102 5.14883 12.2289 5.29349L12.3444 6.78904ZM3.69783 5.567C4.25811 5.46118 4.85097 5.56306 5.34541 5.8472L6.09279 4.54666C5.2908 4.08578 4.33448 3.92024 3.41946 4.09305L3.69783 5.567ZM5.50338 13.4854L7.39102 15.373L8.45168 14.3124L6.56404 12.4247L5.50338 13.4854ZM8.45168 15.373L10.3393 13.4854L9.27866 12.4247L7.39102 14.3124L8.45168 15.373ZM7.17135 9.49438V14.8427H8.67135V9.49438H7.17135ZM11.7124 11.8174H12.4831V10.3174H11.7124V11.8174Z" fill="black"/>
</svg>

<svg width="16" height="16" viewBox="0 0 16 16" fill="none" xmlns="http://www.w3.org/2000/svg"><path d="M4.146 11.817a.75.75 0 0 0 0-1.5v1.5ZM3.56 4.83l.139.737-.14-.737Zm8.728 1.211-.742-.11a.75.75 0 0 0 .8.858l-.058-.748Zm-6.942-.194a.75.75 0 0 0 .748-1.3l-.748 1.3Zm3.326 3.647a.75.75 0 0 0-1.5 0h1.5Zm-2.107 2.93a.75.75 0 1 0-1.06 1.061l1.06-1.06Zm1.357 2.419-.53.53a.75.75 0 0 0 1.06 0l-.53-.53Zm2.418-1.358a.75.75 0 0 0-1.06-1.06l1.06 1.06Zm1.373-3.168a.75.75 0 0 0 0 1.5v-1.5Zm-7.566 0A2.396 2.396 0 0 1 1.75 7.921H.25a3.896 3.896 0 0 0 3.896 3.896v-1.5ZM14.25 8.551c0 .975-.791 1.766-1.767 1.766v1.5a3.267 3.267 0 0 0 3.267-3.266h-1.5Zm-12.5-.63c0-1.17.839-2.145 1.948-2.354L3.42 4.093A3.897 3.897 0 0 0 .25 7.921h1.5Zm2.554-3.006C4.527 2.97 6.268 1.75 7.92 1.75V.25c-2.29 0-4.784 1.675-5.106 4.495l1.49.17ZM7.92 1.75c2.417 0 3.92 2.18 3.624 4.182l1.484.219C13.44 3.356 11.364.25 7.92.25v1.5Zm4.423 5.039c1.006-.078 1.906.752 1.906 1.762h1.5c0-1.888-1.648-3.402-3.521-3.258l.115 1.496ZM3.698 5.567a2.428 2.428 0 0 1 1.647.28l.748-1.3a3.928 3.928 0 0 0-2.673-.454l.278 1.474Zm1.805 7.918 1.888 1.888 1.06-1.06-1.887-1.888-1.06 1.06Zm2.949 1.888 1.887-1.888-1.06-1.06-1.888 1.887 1.06 1.061Zm-1.28-5.879v5.349h1.5V9.494h-1.5Zm4.54 2.323h.771v-1.5h-.77v1.5Z" fill="#000"/></svg>
